images/svg-symbols/cart.svg

<?xml version="1.0" encoding="UTF-8"?><!DOCTYPE svg PUBLIC "-//W3C//DTD SVG 1.1//EN" "http://www.w3.org/Graphics/SVG/1.1/DTD/svg11.dtd"><svg xmlns="http://www.w3.org/2000/svg" xmlns:xlink="http://www.w3.org/1999/xlink" version="1.1" viewBox="0 0 24 24"><path d="M17,18C15.89,18 15,18.89 15,20A2,2 0 0,0 17,22A2,2 0 0,0 19,20C19,18.89 18.1,18 17,18M1,2V4H3L6.6,11.59L5.24,14.04C5.09,14.32 5,14.65 5,15A2,2 0 0,0 7,17H19V15H7.42A0.25,0.25 0 0,1 7.17,14.75C7.17,14.7 7.18,14.66 7.2,14.63L8.1,13H15.55C16.3,13 16.96,12.58 17.3,11.97L20.88,5.5C20.95,5.34 21,5.17 21,5A1,1 0 0,0 20,4H5.21L4.27,2M7,18C5.89,18 5,18.89 5,20A2,2 0 0,0 7,22A2,2 0 0,0 9,20C9,18.89 8.1,18 7,18Z" /></svg>

<svg xmlns="http://www.w3.org/2000/svg" viewBox="0 0 24 24"><path d="M17 18a2 2 0 0 0-2 2 2 2 0 0 0 2 2 2 2 0 0 0 2-2 2 2 0 0 0-2-2M1 2v2h2l3.6 7.6L5.2 14a2 2 0 0 0-.2 1 2 2 0 0 0 2 2h12v-2H7.4a.3.3 0 0 1-.2-.3l.9-1.7h7.5a2 2 0 0 0 1.7-1l3.6-6.5.1-.5a1 1 0 0 0-1-1H5.2l-1-2M7 18a2 2 0 0 0-2 2 2 2 0 0 0 2 2 2 2 0 0 0 2-2 2 2 0 0 0-2-2z"/></svg>
